X:1
T:Title
%%score { ( 1 3 ) | ( 2 4 ) }
L:1/8
Q:1/4=90
M:6/8
K:G
V:1 treble nm="Grand Piano"
V:3 treble 
V:2 treble 
V:4 treble 
V:1
 B2 A G2 F | E2 G D3 | G2 B [Bd]2 [GB] | [GB]3 [FA]3 | [GB]2 [FA] [EG]2 z/ A,/ | E2 G D3 | %6
w: Wm.~B.~Bradbury * * *||||||
 G2 B [Bd]2 [GB] | [FA]3 G3 | d2 d d3 | [Ge]2 [Ge] [Ge]3 | d2 B BA[B,DG] | [DGB]3 [DFA]3 | %12
w: ||||||
 [DGB]2 [CFA] [B,EG]2 [B,DF] | [G,CE]2 [CG] [B,D]3 | [B,DG]2 [DGB] [DBd]2 [DGB] | [CFA]3 [B,G]3 |] %16
w: ||||
V:2
 [G,G]2 [G,F] [G,E]2 [G,D] | [G,C]2 [G,E] [G,B,]3 | [G,B,D]2 [G,DG][K:bass] [G,D]2 [G,D] | %3
 [D,D]3 [D,D]3 | [G,D]2 [D,C] [E,B,]2 .[B,,B,] | [C,G,C]2 [E,G,C] [G,B,]3 | %6
 [G,B,D]2 [G,DG][K:bass] [G,D]2 [G,D] | [D,C]3 [G,B,]3 | [G,B,G]2 [G,B,G] [G,B,G]3 | %9
 [C,C]2 [C,C] [C,C]3 | [G,B,G]2 [G,DG] DCG, | D,3 D,3 | G,2 D, E,2 B,, | C,2 E, G,3 | %14
 G,2 G, G,2 G, | D,3 G,3 |] %16
V:3
 x6 | x6 | x6 | x6 | z3 z2 [DF] | x6 | x6 | x6 | x6 | x6 | x6 | x6 | x6 | x6 | x6 | x6 |] %16
V:4
 x6 | x6 | x3[K:bass] x3 | x6 | x6 | x6 | x3[K:bass] x3 | x6 | x6 | x6 | z3 .G,3 | x6 | x6 | x6 | %14
 x6 | x6 |] %16

